src/aboutme/aboutme.svg

<svg xmlns="http://www.w3.org/2000/svg" width="128" height="128"><path fill="#fff" d="M62.301 79.595v-20.342c0-3.358-1.486-5.618-5.167-5.618-3.035 0-5.878 2.066-7.234 4.133v21.827h-6.782v-20.342c0-3.358-1.422-5.618-5.104-5.618-3.035 0-5.812 2.13-7.234 4.133v21.827h-6.78v-31.192h6.78v4.199c1.359-1.873 5.427-4.973 10.207-4.973 4.649 0 7.492 2.325 8.525 5.683 1.743-2.777 5.878-5.683 10.591-5.683 5.686 0 8.979 3.099 8.979 9.429v22.537h-6.781zm10.566-15.627c0-9.042 6.589-16.339 15.824-16.339 9.364 0 15.309 7.103 15.309 16.919v1.679h-24.028c.518 4.651 4.005 8.59 9.883 8.59 3.101 0 6.652-1.228 8.913-3.489l3.099 4.456c-3.165 2.972-7.751 4.586-12.658 4.586-9.431.001-16.342-6.522-16.342-16.402zm15.76-10.785c-5.748 0-8.462 4.456-8.72 8.201h17.569c-.195-3.681-2.714-8.201-8.849-8.201z"/></svg>

<?xml version="1.0" encoding="UTF-8" standalone="no"?>
<!-- Created with Inkscape (http://www.inkscape.org/) -->

<svg
   xmlns:dc="http://purl.org/dc/elements/1.1/"
   xmlns:cc="http://creativecommons.org/ns#"
   xmlns:rdf="http://www.w3.org/1999/02/22-rdf-syntax-ns#"
   xmlns:svg="http://www.w3.org/2000/svg"
   xmlns="http://www.w3.org/2000/svg"
   xmlns:inkscape="http://www.inkscape.org/namespaces/inkscape"
   version="1.1"
   width="128"
   height="128"
   id="svg2">
  <metadata
     id="metadata10">
    <rdf:RDF>
      <cc:Work
         rdf:about="">
        <dc:format>image/svg+xml</dc:format>
        <dc:type
           rdf:resource="http://purl.org/dc/dcmitype/StillImage" />
      </cc:Work>
    </rdf:RDF>
  </metadata>
  <defs
     id="defs8" />
  <path
     d="M 62.301,79.595 V 59.253 c 0,-3.358 -1.486,-5.618 -5.167,-5.618 -3.035,0 -5.878,2.066 -7.234,4.133 V 79.595 H 43.118 V 59.253 c 0,-3.358 -1.422,-5.618 -5.104,-5.618 -3.035,0 -5.812,2.13 -7.234,4.133 V 79.595 H 24 V 48.403 h 6.78 v 4.199 c 1.359,-1.873 5.427,-4.973 10.207,-4.973 4.649,0 7.492,2.325 8.525,5.683 1.743,-2.777 5.878,-5.683 10.591,-5.683 5.686,0 8.979,3.099 8.979,9.429 V 79.595 H 62.301 z M 72.867,63.968 c 0,-9.042 6.589,-16.339 15.824,-16.339 9.364,0 15.309,7.103 15.309,16.919 v 1.679 H 79.972 c 0.518,4.651 4.005,8.59 9.883,8.59 3.101,0 6.652,-1.228 8.913,-3.489 l 3.099,4.456 C 98.702,78.756 94.116,80.37 89.209,80.37 79.778,80.371 72.867,73.848 72.867,63.968 z m 15.76,-10.785 c -5.748,0 -8.462,4.456 -8.72,8.201 h 17.569 c -0.195,-3.681 -2.714,-8.201 -8.849,-8.201 z"
     inkscape:connector-curvature="0"
     id="path4"
     style="fill:#ffffff" />
</svg>
